X: 3
T: The Burnt Old Man
R: jig
M: 6/8
L: 1/8
K: Dmaj
d2B AFD|FGF F3|d2B AFD|EFE E3|
d2B AFA|DFA d2e|fed B2d|AFD E3:|
d3 def|ABA AFA|efe d2e|fed B2d|
A2d def|ABA d2e|fed B2d|AFD E3:|


Tune 1029	Setting 27315

